X:EJ-9
T:Engels Pols
T:(Totakt-pols, nr. EJ-9)
S:efter Erik Jensen
R:Totakt-pols
B:Totakt-pols
O:Boes, Århus amt, Danmark
N:[[Platser/Danmark|Fler låtar från Danmark...]]
M:2/4
L:1/8
K:D
|: dffd | ceec | dffd | ec A2 :: GBBG | FAAF | GBBG | F2 D2 :|
(:musicend:)
(:music:)
